X:36
T:Big Country
C:Vernon Derrick 
N:Transcribed by Mike Stangeland
R:bluegrass
L:1/8
Q:1/4=247
M:4/4
K:G
z8 | z2 (3AAA ^c2 d2 | "A"[e2e2] [ee][ee] ef ee | ^cB AA AA {=F}^F2 | "D"[A2A2] [AA][AA] AB AA | 
FE DD DD FD | "A"E2 AA AA AB | ^c2 [ee][ee] [ee][ee] [ee][ee] | ef ed ^cB Ac | 
"E"[B^G][BG] [BG][BG] [BG][BG] [BG][BG] | GF E2 EE EE | "A"[^g^d][ae] z[gd] [ae][gd] [a2e2] | 
ef ed ^cB AA | {G}"D"A2 c2 d2 c2 | {d}e2 g2 (3edc A2 | {G}"A"A2 cc dc d^d | eg gg ag ac' | 
"E"ag ed cA FE | "A"A2 Bc ^ce fe | a2 AA B2 d2 | "D"[af][af] [af][af] [af][af] [af][af] | 
[fd][fd] [fd][fd] [fd][fd] [e^c][ec] | "A"[ae][ae] [ae][ae] [ae][ae] ed | [e^c][ec] [ec][ec] [ec][ec] [ec][ec] | 
"B"[f2^d2] [fd][fd] [fd][fd] [fd][fd] | d^c B2 c2 ^d2 | "E"e2 ef ^gb gf | ef ed ^cB A2 | 
"A"[e2e2] [ee][ee] ef ee | ^cB AA AA =F^F | "D"[A2A2] [AA][AA] AB AA | FE DD DD FD | 
"A"E2 {G}AA AA AB | ^c2 [ee][ee] [ee][ee] [ee][ee] | "E"^cB Ac BA ^GB | "A"A2 Ac BA FE | A8 | 

